X:114
T:MTHRSWM2- Mother, May I Go Out to Swim (chorus)
S:by Lester Keith, 1908
Q:1/4=100
L:1/8
M:6/8
K:G
d e d B2^G|A2BE3|F2GA2F|E3D3|\
D2E G F E|F F GA2D|A2DA2^G|^A3B3|\
d e d B A ^G|A2BE2G|F2GA2^A|^A3B3|\
e2d c c B|A B A E2G|F2ED2B|A3G3|]

